X:506
%%etbk:tnset id:233,pos:3,rep:3x,ant:
%%etbk:video src:ytube,cde:QTbs02yBD3o,desc:
%%etbk:pldat 2014-12-30T18:06,2014-12-11T18:47,2014-05-04T10:53,2014-05-01T18:49,2014-04-30T17:32,2014-02-18T18:34,2014-02-13T18:56,2014-02-08T13:35,2014-02-07T16:13,2013-11-06T18:05,2013-10-02T18:04,2013-09-30T18:46,2013-09-26T14:43,2013-09-15T15:35
T:Boyne Hunt, The
Z: Piano Box Version by Martin Fleischmann
H: Created 2013-09-15 /  Last Modified 2014-02-07
R:reel
M:4/4
K:Dmaj
!4!A2!2!FA !1!DAFA | !1!DAFA !5!B!1!EEE | !4!A2!2!FA !1!DAF!4!A| !1!ABde !5!fed!2!B|
!2!B!1!A!2!F!4!A !1!DAFA| !1!DAFA !5!B!1!EEE | !4!A2!2!FA !1!DAF!4!A| !1!ABde !5!f!3!d!1!de||
!3!faaf a2a!2!f|!3!gfga bg!1!e!4!g | !3!faaf af!1!d!2!B| !1!ABde !5!f!3!d!1!de|
!3!faaf a2a!2!f|!3!g2ga bg!1!e!4!g|!3!fgfe !1!d2d!2!B|!1!ABde !5!fed!2!B||


